COLOR/action 16/16/evolution-memos.svg

<svg height="16" width="16" xmlns="http://www.w3.org/2000/svg"><g stroke-width="1.066663"><path d="m4.6786149.00001067c-3.2444258 0-3.5935232.32958819-3.5776193 3.54485133v4.4551201 4.4551099c-.015893 3.215273.3331935 3.544861 3.5776193 3.544861h6.7108671c3.244437 0 3.57763-.329545 3.57763-3.544861v-4.4551099-4.4551201c0-3.21530581-.333204-3.54485133-3.57763-3.54485133z" fill="#fee581"/><path d="m4.6796495 0c-3.2444257 0-3.5950592.33055885-3.5791552 3.545822v.187498h13.8666177v-.187498c0-3.21530581-.33266-3.545822-3.577075-3.545822z" fill="#fdc92b"/><path d="m3.7671514 5.8666458v1.0666628h8.5333036v-1.0666628zm0 2.1333257v1.0666628h8.5333036v-1.0666628zm0 2.1333265v1.066663h4.2666515v-1.066663z" fill="#1463a5"/><path d="m1.1019826 11.920848v.533331c-.0158933 3.215273.3326449 3.545821 3.5770707 3.545821h6.7103927c3.244436 0 3.577071-.330505 3.577071-3.545821v-.533331c0 3.215315-.332635 3.545821-3.577071 3.545821h-6.7103927c-3.2444258 0-3.592964-.330549-3.5770707-3.545821z" opacity=".2"/><path d="m4.6790533.0000571c-3.2444258 0-3.5929746.33055743-3.5770707 3.5458207v.5333315c-.0159039-3.21526323.3326449-3.54582077 3.5770707-3.54582077h6.7103927c3.244426 0 3.577071.33051487 3.577071 3.54582077v-.5333315c0-3.21530593-.332645-3.5458207-3.577071-3.5458207z" fill="#fff" opacity=".3"/></g></svg>

<?xml version="1.0" encoding="UTF-8" standalone="no"?>
<svg
   xmlns:dc="http://purl.org/dc/elements/1.1/"
   xmlns:cc="http://creativecommons.org/ns#"
   xmlns:rdf="http://www.w3.org/1999/02/22-rdf-syntax-ns#"
   xmlns:svg="http://www.w3.org/2000/svg"
   xmlns="http://www.w3.org/2000/svg"
   xmlns:sodipodi="http://sodipodi.sourceforge.net/DTD/sodipodi-0.dtd"
   xmlns:inkscape="http://www.inkscape.org/namespaces/inkscape"
   height="16"
   width="16"
   version="1.1"
   id="svg12"
   sodipodi:docname="evolution-memos.svg"
   inkscape:version="0.92.4 (5da689c313, 2019-01-14)">
  <metadata
     id="metadata18">
    <rdf:RDF>
      <cc:Work
         rdf:about="">
        <dc:format>image/svg+xml</dc:format>
        <dc:type
           rdf:resource="http://purl.org/dc/dcmitype/StillImage" />
        <dc:title></dc:title>
      </cc:Work>
    </rdf:RDF>
  </metadata>
  <defs
     id="defs16" />
  <sodipodi:namedview
     pagecolor="#ffffff"
     bordercolor="#666666"
     borderopacity="1"
     objecttolerance="10"
     gridtolerance="10"
     guidetolerance="10"
     inkscape:pageopacity="0"
     inkscape:pageshadow="2"
     inkscape:window-width="1920"
     inkscape:window-height="1016"
     id="namedview14"
     showgrid="false"
     inkscape:zoom="55.933134"
     inkscape:cx="8.0003262"
     inkscape:cy="8.0000268"
     inkscape:window-x="0"
     inkscape:window-y="27"
     inkscape:window-maximized="1"
     inkscape:current-layer="svg12" />
  <path
     d="M 4.6786149,1.0666629e-5 C 1.4341891,1.0666629e-5 1.0850917,0.32959886 1.1009956,3.544862 v 4.4551201 4.4551099 c -0.015893,3.215273 0.3331935,3.544861 3.5776193,3.544861 h 6.7108671 c 3.244437,0 3.57763,-0.329545 3.57763,-3.544861 V 7.9999821 3.544862 c 0,-3.21530581 -0.333204,-3.544851333371 -3.57763,-3.544851333371 z"
     id="path2"
     inkscape:connector-curvature="0"
     style="fill:#fee581;stroke-width:1.06666291" />
  <path
     d="M 4.6796495,0 C 1.4352238,0 1.0845903,0.33055885 1.1004943,3.545822 V 3.73332 H 14.967112 V 3.545822 C 14.967112,0.33051619 14.634452,0 11.390037,0 Z"
     id="path4"
     inkscape:connector-curvature="0"
     style="fill:#fdc92b;stroke-width:1.06666291" />
  <path
     d="M 3.7671514,5.8666458 V 6.9333086 H 12.300455 V 5.8666458 Z m 0,2.1333257 V 9.0666343 H 12.300455 V 7.9999715 Z m 0,2.1333265 v 1.066663 h 4.2666515 v -1.066663 z"
     id="path6"
     inkscape:connector-curvature="0"
     style="fill:#1463a5;stroke-width:1.06666291" />
  <path
     d="m 1.1019826,11.920848 v 0.533331 C 1.0860893,15.669452 1.4346275,16 4.6790533,16 h 6.7103927 c 3.244436,0 3.577071,-0.330505 3.577071,-3.545821 v -0.533331 c 0,3.215315 -0.332635,3.545821 -3.577071,3.545821 H 4.6790533 c -3.2444258,0 -3.592964,-0.330549 -3.5770707,-3.545821 z"
     id="path8"
     inkscape:connector-curvature="0"
     style="opacity:0.2;stroke-width:1.06666291" />
  <path
     d="M 4.6790533,5.7098463e-5 C 1.4346275,5.7098463e-5 1.0860787,0.33061453 1.1019826,3.5458778 V 4.0792093 C 1.0860787,0.86394607 1.4346275,0.53338853 4.6790533,0.53338853 h 6.7103927 c 3.244426,0 3.577071,0.33051487 3.577071,3.54582077 V 3.5458778 c 0,-3.21530593 -0.332645,-3.545820701537 -3.577071,-3.545820701537 z"
     id="path10"
     inkscape:connector-curvature="0"
     style="opacity:0.3;fill:#ffffff;stroke-width:1.06666291" />
</svg>
